assets/1. 1-F/Bread/Bread-color.svg

<svg width="100%" height="100%" viewBox="0 0 32 32" fill="none" xmlns="http://www.w3.org/2000/svg">
<path d="M27.3408 25.5926L15 30V16.5L29 13V23.2382C29 24.2947 28.3358 25.2372 27.3408 25.5926Z" fill="url(#paint0_linear_18_32476)"/>
<path d="M14.5898 3.26178L3.20215 7.55596L16.9999 19.0001L27.9812 15.1988C29.1895 14.7806 29.9999 13.6425 29.9999 12.3639V11.4604C29.9999 9.37851 28.7098 7.51446 26.7614 6.781L17.4103 3.26096C16.5012 2.91875 15.4987 2.91904 14.5898 3.26178Z" fill="url(#paint1_linear_18_32476)"/>
<path d="M3 13.5V23.4553C3 24.6888 3.75499 25.7966 4.90304 26.2476L14.2687 29.927C15.5807 30.4424 17 29.4751 17 28.0654V19L17.1567 18.7649C17.7066 17.9401 18 16.971 18 15.9797C18 13.8866 16.7017 12.0131 14.7419 11.2782L4.70225 7.51331C3.39475 7.02299 2 7.98955 2 9.38596V10.7889C2 11.5786 2.23375 12.3506 2.6718 13.0077L3 13.5Z" fill="url(#paint2_linear_18_32476)"/>
<g filter="url(#filter0_f_18_32476)">
<path d="M4.70227 7.51331L14.7419 11.2782C16.7017 12.0131 18 13.8866 18 15.9797C18 16.971 17.7066 17.9401 17.1567 18.7649L17 19V28.0654" stroke="url(#paint3_linear_18_32476)" stroke-width="0.1"/>
</g>
<path d="M3.08278 13.5982V23.3977C3.08278 24.6119 3.82949 25.7023 4.96496 26.1463L14.2279 29.768C15.5256 30.2754 16.8281 29.3233 16.8281 27.9357V19.0121L16.9831 18.7807C17.5269 17.9688 17.8172 17.0149 17.8172 16.0391C17.8172 13.9788 16.6342 12.1346 14.6959 11.4112L4.76636 7.70525C3.4732 7.22262 2.09375 8.17404 2.09375 9.5486V10.9295C2.09375 11.7069 2.32494 12.4668 2.75818 13.1136L3.08278 13.5982Z" fill="url(#paint4_radial_18_32476)"/>
<path d="M8 13.5664C8 13.8059 7.86184 14 7.69141 14C7.52097 14 7.38281 13.8059 7.38281 13.5664C7.38281 13.3269 7.41551 13.1445 7.58594 13.1445C7.75637 13.1445 8 13.3269 8 13.5664Z" fill="#C4C4C4"/>
<ellipse cx="7.65279" cy="13.5633" rx="0.303538" ry="0.457031" transform="rotate(-17.9456 7.65279 13.5633)" fill="url(#paint5_radial_18_32476)"/>
<ellipse cx="5.69186" cy="14.5283" rx="0.303538" ry="0.457031" transform="rotate(-17.9456 5.69186 14.5283)" fill="url(#paint6_radial_18_32476)"/>
<ellipse cx="5.69186" cy="17.4716" rx="0.303538" ry="0.457031" transform="rotate(-17.9456 5.69186 17.4716)" fill="url(#paint7_radial_18_32476)"/>
<ellipse cx="5.62936" cy="21.4716" rx="0.303538" ry="0.457031" transform="rotate(-17.9456 5.62936 21.4716)" fill="url(#paint8_radial_18_32476)"/>
<ellipse cx="7.61373" cy="20.4716" rx="0.303538" ry="0.457031" transform="rotate(-17.9456 7.61373 20.4716)" fill="url(#paint9_radial_18_32476)"/>
<ellipse cx="7.61373" cy="16.4716" rx="0.303538" ry="0.457031" transform="rotate(-17.9456 7.61373 16.4716)" fill="url(#paint10_radial_18_32476)"/>
<ellipse cx="9.62154" cy="15.4716" rx="0.303538" ry="0.457031" transform="rotate(-17.9456 9.62154 15.4716)" fill="url(#paint11_radial_18_32476)"/>
<ellipse cx="11.5704" cy="14.5283" rx="0.303538" ry="0.457031" transform="rotate(-17.9456 11.5704 14.5283)" fill="url(#paint12_radial_18_32476)"/>
<ellipse cx="11.5001" cy="18.5283" rx="0.303538" ry="0.457031" transform="rotate(-17.9456 11.5001 18.5283)" fill="url(#paint13_radial_18_32476)"/>
<ellipse cx="9.5704" cy="19.5283" rx="0.303538" ry="0.457031" transform="rotate(-17.9456 9.5704 19.5283)" fill="url(#paint14_radial_18_32476)"/>
<ellipse cx="9.52352" cy="23.3564" rx="0.303538" ry="0.457031" transform="rotate(-17.9456 9.52352 23.3564)" fill="url(#paint15_radial_18_32476)"/>
<ellipse cx="11.5001" cy="22.3413" rx="0.303538" ry="0.457031" transform="rotate(-17.9456 11.5001 22.3413)" fill="url(#paint16_radial_18_32476)"/>
<ellipse cx="13.4296" cy="24.4716" rx="0.303538" ry="0.457031" transform="rotate(-17.9456 13.4296 24.4716)" fill="url(#paint17_radial_18_32476)"/>
<ellipse cx="13.4296" cy="21.417" rx="0.303538" ry="0.457031" transform="rotate(-17.9456 13.4296 21.417)" fill="url(#paint18_radial_18_32476)"/>
<ellipse cx="13.4649" cy="17.5708" rx="0.303538" ry="0.457031" transform="rotate(-17.9456 13.4649 17.5708)" fill="url(#paint19_radial_18_32476)"/>
<g filter="url(#filter1_f_18_32476)">
<path d="M2.67188 8.28119C3.01562 7.82814 3.85428 7.53713 4.3125 7.67188C4.84375 7.8281 11.5104 10.3125 15.0625 11.6562C16.0991 12.0483 18.1562 13.9687 17.5938 16.8281" stroke="url(#paint20_radial_18_32476)" stroke-width="0.1"/>
</g>
<defs>
<filter id="filter0_f_18_32476" x="4.48469" y="7.26643" width="13.7654" height="20.999" filterUnits="userSpaceOnUse" color-interpolation-filters="sRGB">
<feFlood flood-opacity="0" result="BackgroundImageFix"/>
<feBlend mode="normal" in="SourceGraphic" in2="BackgroundImageFix" result="shape"/>
<feGaussianBlur stdDeviation="0.1" result="effect1_foregroundBlur_18_32476"/>
</filter>
<filter id="filter1_f_18_32476" x="2.53202" y="7.48875" width="15.3074" height="9.44902" filterUnits="userSpaceOnUse" color-interpolation-filters="sRGB">
<feFlood flood-opacity="0" result="BackgroundImageFix"/>
<feBlend mode="normal" in="SourceGraphic" in2="BackgroundImageFix" result="shape"/>
<feGaussianBlur stdDeviation="0.05" result="effect1_foregroundBlur_18_32476"/>
</filter>
<linearGradient id="paint0_linear_18_32476" x1="22" y1="16.375" x2="26.5" y2="28" gradientUnits="userSpaceOnUse">
<stop stop-color="#C3844A"/>
<stop offset="0.677344" stop-color="#BC7B46"/>
<stop offset="0.844716" stop-color="#895461"/>
</linearGradient>
<linearGradient id="paint1_linear_18_32476" x1="13.75" y1="3.00452" x2="19.375" y2="18.25" gradientUnits="userSpaceOnUse">
<stop offset="0.0249607" stop-color="#FFC173"/>
<stop offset="0.101893" stop-color="#FFC974"/>
<stop offset="0.644378" stop-color="#FFCB79"/>
<stop offset="0.753786" stop-color="#FFBB6E"/>
<stop offset="0.876296" stop-color="#E09F59"/>
<stop offset="1" stop-color="#9C5C44"/>
</linearGradient>
<linearGradient id="paint2_linear_18_32476" x1="1.6875" y1="8.875" x2="14.625" y2="30.0674" gradientUnits="userSpaceOnUse">
<stop stop-color="#DF994E"/>
<stop offset="0.483328" stop-color="#E0994D"/>
<stop offset="1" stop-color="#925440"/>
</linearGradient>
<linearGradient id="paint3_linear_18_32476" x1="4.0625" y1="7.75" x2="15.7813" y2="29.8437" gradientUnits="userSpaceOnUse">
<stop stop-color="#DF9A4F"/>
<stop offset="0.426934" stop-color="#E2994D"/>
<stop offset="1" stop-color="#925440"/>
</linearGradient>
<radialGradient id="paint4_radial_18_32476" cx="0" cy="0" r="1" gradientUnits="userSpaceOnUse" gradientTransform="translate(0.5 20.625) rotate(-20.596) scale(20.965 19.3732)">
<stop offset="0.350386" stop-color="#CAA177"/>
<stop offset="1" stop-color="#BE977C"/>
</radialGradient>
<radialGradient id="paint5_radial_18_32476" cx="0" cy="0" r="1" gradientUnits="userSpaceOnUse" gradientTransform="translate(7.08131 13.9336) rotate(-13.6423) scale(1.00862 0.669875)">
<stop stop-color="#AC8761" stop-opacity="0"/>
<stop offset="1" stop-color="#956B54"/>
</radialGradient>
<radialGradient id="paint6_radial_18_32476" cx="0" cy="0" r="1" gradientUnits="userSpaceOnUse" gradientTransform="translate(5.12037 14.8986) rotate(-13.6423) scale(1.00862 0.669875)">
<stop stop-color="#AC8761" stop-opacity="0"/>
<stop offset="1" stop-color="#956B54"/>
</radialGradient>
<radialGradient id="paint7_radial_18_32476" cx="0" cy="0" r="1" gradientUnits="userSpaceOnUse" gradientTransform="translate(5.12037 17.8419) rotate(-13.6423) scale(1.00862 0.669875)">
<stop stop-color="#AC8761" stop-opacity="0"/>
<stop offset="1" stop-color="#956B54"/>
</radialGradient>
<radialGradient id="paint8_radial_18_32476" cx="0" cy="0" r="1" gradientUnits="userSpaceOnUse" gradientTransform="translate(5.05787 21.8419) rotate(-13.6423) scale(1.00862 0.669875)">
<stop stop-color="#AC8761" stop-opacity="0"/>
<stop offset="1" stop-color="#956B54"/>
</radialGradient>
<radialGradient id="paint9_radial_18_32476" cx="0" cy="0" r="1" gradientUnits="userSpaceOnUse" gradientTransform="translate(7.04225 20.8419) rotate(-13.6423) scale(1.00862 0.669875)">
<stop stop-color="#AC8761" stop-opacity="0"/>
<stop offset="1" stop-color="#956B54"/>
</radialGradient>
<radialGradient id="paint10_radial_18_32476" cx="0" cy="0" r="1" gradientUnits="userSpaceOnUse" gradientTransform="translate(7.04225 16.8419) rotate(-13.6423) scale(1.00862 0.669875)">
<stop stop-color="#AC8761" stop-opacity="0"/>
<stop offset="1" stop-color="#956B54"/>
</radialGradient>
<radialGradient id="paint11_radial_18_32476" cx="0" cy="0" r="1" gradientUnits="userSpaceOnUse" gradientTransform="translate(9.05006 15.8419) rotate(-13.6423) scale(1.00862 0.669875)">
<stop stop-color="#AC8761" stop-opacity="0"/>
<stop offset="1" stop-color="#956B54"/>
</radialGradient>
<radialGradient id="paint12_radial_18_32476" cx="0" cy="0" r="1" gradientUnits="userSpaceOnUse" gradientTransform="translate(10.9989 14.8986) rotate(-13.6423) scale(1.00862 0.669875)">
<stop stop-color="#AC8761" stop-opacity="0"/>
<stop offset="1" stop-color="#956B54"/>
</radialGradient>
<radialGradient id="paint13_radial_18_32476" cx="0" cy="0" r="1" gradientUnits="userSpaceOnUse" gradientTransform="translate(10.9286 18.8986) rotate(-13.6423) scale(1.00862 0.669875)">
<stop stop-color="#AC8761" stop-opacity="0"/>
<stop offset="1" stop-color="#956B54"/>
</radialGradient>
<radialGradient id="paint14_radial_18_32476" cx="0" cy="0" r="1" gradientUnits="userSpaceOnUse" gradientTransform="translate(8.99891 19.8986) rotate(-13.6423) scale(1.00862 0.669875)">
<stop stop-color="#AC8761" stop-opacity="0"/>
<stop offset="1" stop-color="#956B54"/>
</radialGradient>
<radialGradient id="paint15_radial_18_32476" cx="0" cy="0" r="1" gradientUnits="userSpaceOnUse" gradientTransform="translate(8.95204 23.7267) rotate(-13.6423) scale(1.00862 0.669875)">
<stop stop-color="#AC8761" stop-opacity="0"/>
<stop offset="1" stop-color="#956B54"/>
</radialGradient>
<radialGradient id="paint16_radial_18_32476" cx="0" cy="0" r="1" gradientUnits="userSpaceOnUse" gradientTransform="translate(10.9286 22.7116) rotate(-13.6423) scale(1.00862 0.669875)">
<stop stop-color="#AC8761" stop-opacity="0"/>
<stop offset="1" stop-color="#956B54"/>
</radialGradient>
<radialGradient id="paint17_radial_18_32476" cx="0" cy="0" r="1" gradientUnits="userSpaceOnUse" gradientTransform="translate(12.8581 24.8419) rotate(-13.6423) scale(1.00862 0.669875)">
<stop stop-color="#AC8761" stop-opacity="0"/>
<stop offset="1" stop-color="#956B54"/>
</radialGradient>
<radialGradient id="paint18_radial_18_32476" cx="0" cy="0" r="1" gradientUnits="userSpaceOnUse" gradientTransform="translate(12.8581 21.7872) rotate(-13.6423) scale(1.00862 0.669875)">
<stop stop-color="#AC8761" stop-opacity="0"/>
<stop offset="1" stop-color="#956B54"/>
</radialGradient>
<radialGradient id="paint19_radial_18_32476" cx="0" cy="0" r="1" gradientUnits="userSpaceOnUse" gradientTransform="translate(12.8934 17.9411) rotate(-13.6423) scale(1.00862 0.669875)">
<stop stop-color="#AC8761" stop-opacity="0"/>
<stop offset="1" stop-color="#956B54"/>
</radialGradient>
<radialGradient id="paint20_radial_18_32476" cx="0" cy="0" r="1" gradientUnits="userSpaceOnUse" gradientTransform="translate(10.1807 10.3125) rotate(98.3186) scale(6.00063 13.6225)">
<stop stop-color="#F2CE97"/>
<stop offset="1" stop-color="#FFEBCB" stop-opacity="0"/>
</radialGradient>
</defs>
</svg>

<svg width="100%" height="100%" viewBox="0 0 32 32" xmlns="http://www.w3.org/2000/svg"><path fill="url(#a)" d="M27.34 25.593 15 30V16.5L29 13v10.238a2.5 2.5 0 0 1-1.66 2.355"/><path fill="url(#b)" d="M14.59 3.262 3.202 7.556 17 19 27.98 15.2A3 3 0 0 0 30 12.364v-.904a5 5 0 0 0-3.239-4.679l-9.35-3.52a4 4 0 0 0-2.821 0"/><path fill="url(#c)" d="M3 13.5v9.955a3 3 0 0 0 1.903 2.793l9.366 3.679A2 2 0 0 0 17 28.065V19l.157-.235a5.02 5.02 0 0 0-2.415-7.487L4.702 7.513A2 2 0 0 0 2 9.386v1.403a4 4 0 0 0 .672 2.219z"/><g filter="url(#d)"><path stroke="url(#e)" stroke-width=".1" d="m4.702 7.513 10.04 3.765a5.02 5.02 0 0 1 2.415 7.487L17 19v9.065"/></g><path fill="url(#f)" d="M3.083 13.598v9.8c0 1.214.746 2.304 1.882 2.748l9.263 3.622c1.298.507 2.6-.445 2.6-1.832v-8.924l.155-.231a4.93 4.93 0 0 0 .834-2.742c0-2.06-1.183-3.904-3.121-4.628l-9.93-3.706c-1.293-.482-2.672.469-2.672 1.844v1.38c0 .778.23 1.538.664 2.185z"/><path fill="#C4C4C4" d="M8 13.566c0 .24-.138.434-.309.434s-.308-.194-.308-.434.033-.421.203-.421.414.182.414.421"/><ellipse cx="7.653" cy="13.563" fill="url(#g)" rx=".304" ry=".457" transform="rotate(-17.946 7.653 13.563)"/><ellipse cx="5.692" cy="14.528" fill="url(#h)" rx=".304" ry=".457" transform="rotate(-17.946 5.692 14.528)"/><ellipse cx="5.692" cy="17.472" fill="url(#i)" rx=".304" ry=".457" transform="rotate(-17.946 5.692 17.472)"/><ellipse cx="5.629" cy="21.472" fill="url(#j)" rx=".304" ry=".457" transform="rotate(-17.946 5.63 21.472)"/><ellipse cx="7.614" cy="20.472" fill="url(#k)" rx=".304" ry=".457" transform="rotate(-17.946 7.614 20.472)"/><ellipse cx="7.614" cy="16.472" fill="url(#l)" rx=".304" ry=".457" transform="rotate(-17.946 7.614 16.472)"/><ellipse cx="9.622" cy="15.472" fill="url(#m)" rx=".304" ry=".457" transform="rotate(-17.946 9.622 15.472)"/><ellipse cx="11.57" cy="14.528" fill="url(#n)" rx=".304" ry=".457" transform="rotate(-17.946 11.57 14.528)"/><ellipse cx="11.5" cy="18.528" fill="url(#o)" rx=".304" ry=".457" transform="rotate(-17.946 11.5 18.528)"/><ellipse cx="9.57" cy="19.528" fill="url(#p)" rx=".304" ry=".457" transform="rotate(-17.946 9.57 19.528)"/><ellipse cx="9.524" cy="23.356" fill="url(#q)" rx=".304" ry=".457" transform="rotate(-17.946 9.524 23.356)"/><ellipse cx="11.5" cy="22.341" fill="url(#r)" rx=".304" ry=".457" transform="rotate(-17.946 11.5 22.341)"/><ellipse cx="13.43" cy="24.472" fill="url(#s)" rx=".304" ry=".457" transform="rotate(-17.946 13.43 24.472)"/><ellipse cx="13.43" cy="21.417" fill="url(#t)" rx=".304" ry=".457" transform="rotate(-17.946 13.43 21.417)"/><ellipse cx="13.465" cy="17.571" fill="url(#u)" rx=".304" ry=".457" transform="rotate(-17.946 13.465 17.57)"/><g filter="url(#v)"><path stroke="url(#w)" stroke-width=".1" d="M2.672 8.281c.344-.453 1.182-.744 1.64-.61.532.157 7.198 2.641 10.75 3.985 1.037.392 3.094 2.313 2.532 5.172"/></g><defs><radialGradient id="f" cx="0" cy="0" r="1" gradientTransform="rotate(-20.596 57.007 8.937)scale(20.965 19.3732)" gradientUnits="userSpaceOnUse"><stop offset=".35" stop-color="#CAA177"/><stop offset="1" stop-color="#BE977C"/></radialGradient><radialGradient id="g" cx="0" cy="0" r="1" gradientTransform="matrix(.98016 -.2379 .158 .65098 7.081 13.934)" gradientUnits="userSpaceOnUse"><stop stop-color="#AC8761" stop-opacity="0"/><stop offset="1" stop-color="#956B54"/></radialGradient><radialGradient id="h" cx="0" cy="0" r="1" gradientTransform="matrix(.98016 -.2379 .158 .65098 5.12 14.899)" gradientUnits="userSpaceOnUse"><stop stop-color="#AC8761" stop-opacity="0"/><stop offset="1" stop-color="#956B54"/></radialGradient><radialGradient id="i" cx="0" cy="0" r="1" gradientTransform="matrix(.98016 -.2379 .158 .65098 5.12 17.842)" gradientUnits="userSpaceOnUse"><stop stop-color="#AC8761" stop-opacity="0"/><stop offset="1" stop-color="#956B54"/></radialGradient><radialGradient id="j" cx="0" cy="0" r="1" gradientTransform="matrix(.98016 -.2379 .158 .65098 5.058 21.842)" gradientUnits="userSpaceOnUse"><stop stop-color="#AC8761" stop-opacity="0"/><stop offset="1" stop-color="#956B54"/></radialGradient><radialGradient id="k" cx="0" cy="0" r="1" gradientTransform="matrix(.98016 -.2379 .158 .65098 7.042 20.842)" gradientUnits="userSpaceOnUse"><stop stop-color="#AC8761" stop-opacity="0"/><stop offset="1" stop-color="#956B54"/></radialGradient><radialGradient id="l" cx="0" cy="0" r="1" gradientTransform="matrix(.98016 -.2379 .158 .65098 7.042 16.842)" gradientUnits="userSpaceOnUse"><stop stop-color="#AC8761" stop-opacity="0"/><stop offset="1" stop-color="#956B54"/></radialGradient><radialGradient id="m" cx="0" cy="0" r="1" gradientTransform="matrix(.98016 -.2379 .158 .65098 9.05 15.842)" gradientUnits="userSpaceOnUse"><stop stop-color="#AC8761" stop-opacity="0"/><stop offset="1" stop-color="#956B54"/></radialGradient><radialGradient id="n" cx="0" cy="0" r="1" gradientTransform="matrix(.98016 -.2379 .158 .65098 10.999 14.899)" gradientUnits="userSpaceOnUse"><stop stop-color="#AC8761" stop-opacity="0"/><stop offset="1" stop-color="#956B54"/></radialGradient><radialGradient id="o" cx="0" cy="0" r="1" gradientTransform="matrix(.98016 -.2379 .158 .65098 10.929 18.899)" gradientUnits="userSpaceOnUse"><stop stop-color="#AC8761" stop-opacity="0"/><stop offset="1" stop-color="#956B54"/></radialGradient><radialGradient id="p" cx="0" cy="0" r="1" gradientTransform="matrix(.98016 -.2379 .158 .65098 8.999 19.899)" gradientUnits="userSpaceOnUse"><stop stop-color="#AC8761" stop-opacity="0"/><stop offset="1" stop-color="#956B54"/></radialGradient><radialGradient id="q" cx="0" cy="0" r="1" gradientTransform="matrix(.98016 -.2379 .158 .65098 8.952 23.727)" gradientUnits="userSpaceOnUse"><stop stop-color="#AC8761" stop-opacity="0"/><stop offset="1" stop-color="#956B54"/></radialGradient><radialGradient id="r" cx="0" cy="0" r="1" gradientTransform="matrix(.98016 -.2379 .158 .65098 10.929 22.712)" gradientUnits="userSpaceOnUse"><stop stop-color="#AC8761" stop-opacity="0"/><stop offset="1" stop-color="#956B54"/></radialGradient><radialGradient id="s" cx="0" cy="0" r="1" gradientTransform="matrix(.98016 -.2379 .158 .65098 12.858 24.842)" gradientUnits="userSpaceOnUse"><stop stop-color="#AC8761" stop-opacity="0"/><stop offset="1" stop-color="#956B54"/></radialGradient><radialGradient id="t" cx="0" cy="0" r="1" gradientTransform="matrix(.98016 -.2379 .158 .65098 12.858 21.787)" gradientUnits="userSpaceOnUse"><stop stop-color="#AC8761" stop-opacity="0"/><stop offset="1" stop-color="#956B54"/></radialGradient><radialGradient id="u" cx="0" cy="0" r="1" gradientTransform="matrix(.98016 -.2379 .158 .65098 12.893 17.941)" gradientUnits="userSpaceOnUse"><stop stop-color="#AC8761" stop-opacity="0"/><stop offset="1" stop-color="#956B54"/></radialGradient><radialGradient id="w" cx="0" cy="0" r="1" gradientTransform="rotate(98.319 .633 9.556)scale(6.00063 13.6225)" gradientUnits="userSpaceOnUse"><stop stop-color="#F2CE97"/><stop offset="1" stop-color="#FFEBCB" stop-opacity="0"/></radialGradient><linearGradient id="a" x1="22" x2="26.5" y1="16.375" y2="28" gradientUnits="userSpaceOnUse"><stop stop-color="#C3844A"/><stop offset=".677" stop-color="#BC7B46"/><stop offset=".845" stop-color="#895461"/></linearGradient><linearGradient id="b" x1="13.75" x2="19.375" y1="3.005" y2="18.25" gradientUnits="userSpaceOnUse"><stop offset=".025" stop-color="#FFC173"/><stop offset=".102" stop-color="#FFC974"/><stop offset=".644" stop-color="#FFCB79"/><stop offset=".754" stop-color="#FFBB6E"/><stop offset=".876" stop-color="#E09F59"/><stop offset="1" stop-color="#9C5C44"/></linearGradient><linearGradient id="c" x1="1.688" x2="14.625" y1="8.875" y2="30.067" gradientUnits="userSpaceOnUse"><stop stop-color="#DF994E"/><stop offset=".483" stop-color="#E0994D"/><stop offset="1" stop-color="#925440"/></linearGradient><linearGradient id="e" x1="4.063" x2="15.781" y1="7.75" y2="29.844" gradientUnits="userSpaceOnUse"><stop stop-color="#DF9A4F"/><stop offset=".427" stop-color="#E2994D"/><stop offset="1" stop-color="#925440"/></linearGradient><filter id="d" width="13.765" height="20.999" x="4.485" y="7.266" color-interpolation-filters="sRGB" filterUnits="userSpaceOnUse"><feFlood flood-opacity="0" result="BackgroundImageFix"/><feBlend in="SourceGraphic" in2="BackgroundImageFix" result="shape"/><feGaussianBlur result="effect1_foregroundBlur_18_32476" stdDeviation=".1"/></filter><filter id="v" width="15.307" height="9.449" x="2.532" y="7.489" color-interpolation-filters="sRGB" filterUnits="userSpaceOnUse"><feFlood flood-opacity="0" result="BackgroundImageFix"/><feBlend in="SourceGraphic" in2="BackgroundImageFix" result="shape"/><feGaussianBlur result="effect1_foregroundBlur_18_32476" stdDeviation=".05"/></filter></defs></svg>
